X: 39234
T: Tabhair Dom Do Lámh
R: waltz
M: 3/4
K: Gmajor
|:D2|E2 G2 G2|G4 D2|E2 G2 G2|G4 D2|E2 G2 G2|
G2 A2 B2|B2 e2 d2|B4 AG|A2 A2 ed|B2 B2 dB|
A2 AB AG|E4 D2|E2 G2 G2|G4 D2|E2 G2 G2|
G4 D2|E2 G2 G2|G2 A2 B2|D3 B AB|G4 D2|
E2 G2 G2|G2 A2 B2|B2 e2 d2|B4 AG|A2 A2 ed|B2 B2 dB|
A2 A2 Bd|e4 dB|d2 d2 e2|g4 ed|e2 e2 g2|a4 ge|
g2 g2 de|g2 g2 de|g2 g2 a2|b6|b2 b2 b2|b4 ag|
a3 g ab|a4 gf|e2 e2 ge|d2 d2 ed|B2 B2 dB|A4 BA|
G2 G2 Bd|=f4 ed|e2e2 g2|e4 dB|d2 d2 ed|B2 B2 dB|
A3 c BA|G4:|D2|E2 G2 G2|G4 D2|E2 G2 G2|
G4 D2|E2 G2 G2|G2 A2 B2|D3 B AB|G6|

